public/payments/crypto/bitcoin-cash.svg

<svg width="18" height="18" viewBox="0 0 18 18" fill="none" xmlns="http://www.w3.org/2000/svg">
<g clip-path="url(#clip0_218_139)">
<path d="M9 18C13.9706 18 18 13.9706 18 9C18 4.02944 13.9706 0 9 0C4.02944 0 0 4.02944 0 9C0 13.9706 4.02944 18 9 18Z" fill="#0AC18E"/>
<path d="M11.8074 5.97792C11.3551 4.95229 10.3157 4.733 9.04341 4.94543L8.63453 3.36015L7.67057 3.60914L8.0726 5.18985C7.81904 5.25381 7.55864 5.30863 7.30052 5.38173L6.89849 3.81015L5.93453 4.05914L6.34341 5.64442C6.13554 5.70381 4.39722 6.14924 4.39722 6.14924L4.66219 7.18173C4.66219 7.18173 5.37031 6.983 5.36346 6.99899C5.75635 6.89619 5.94138 7.09264 6.02818 7.27767L7.15204 11.6223C7.16574 11.748 7.1429 11.9627 6.87336 12.0358C6.88935 12.0449 6.17209 12.2162 6.17209 12.2162L6.27717 13.4201C6.27717 13.4201 7.9995 12.9792 8.22564 12.9221L8.63909 14.5256L9.60305 14.2767L9.1896 12.6617C9.45458 12.6 9.7127 12.536 9.96397 12.4698L10.3751 14.0756L11.3391 13.8267L10.9256 12.2254C12.4104 11.8645 13.4589 10.9279 13.2442 9.49569C13.1071 8.63224 12.1637 7.92411 11.3802 7.84416C11.8622 7.41701 12.1066 6.7934 11.8074 5.97792ZM11.3437 9.75838C11.5355 11.1769 9.56422 11.3505 8.91321 11.5218L8.34671 9.39975C9.00001 9.22843 11.0193 8.50888 11.3437 9.75838ZM10.1558 6.86878C10.3591 8.1297 8.67336 8.27589 8.1297 8.41523L7.61346 6.4896C8.1594 6.35482 9.74239 5.70152 10.1558 6.86878Z" fill="white"/>
</g>
<defs>
<clipPath id="clip0_218_139">
<rect width="18" height="18" fill="white"/>
</clipPath>
</defs>
</svg>

<svg xmlns="http://www.w3.org/2000/svg" width="18" height="18" fill="none"><g clip-path="url(#a)"><path fill="#0AC18E" d="M9 18A9 9 0 1 0 9 0a9 9 0 0 0 0 18Z"/><path fill="#fff" d="M11.8 5.98c-.44-1.03-1.48-1.25-2.76-1.03l-.4-1.59-.97.25.4 1.58c-.25.06-.51.12-.77.2L6.9 3.8l-.97.25.41 1.58-1.94.5.26 1.04s.71-.2.7-.18c.4-.1.58.1.67.28l1.12 4.34c.02.13 0 .34-.28.42l-.7.18.1 1.2 1.96-.5.4 1.6.97-.24-.41-1.62.77-.19.42 1.6.96-.24-.41-1.6c1.48-.37 2.53-1.3 2.31-2.73-.13-.87-1.08-1.58-1.86-1.66.48-.42.73-1.05.43-1.86Zm-.46 3.78c.2 1.42-1.78 1.6-2.43 1.76L8.35 9.4c.65-.17 2.67-.9 3 .36Zm-1.18-2.9c.2 1.27-1.49 1.42-2.03 1.56l-.52-1.93c.55-.14 2.13-.79 2.55.38Z"/></g><defs><clipPath id="a"><path fill="#fff" d="M0 0h18v18H0z"/></clipPath></defs></svg>
